img/send.svg

<svg width="24" height="24" viewBox="0 0 24 24" fill="none" xmlns="http://www.w3.org/2000/svg">
<path d="M11.9942 24C18.5713 24 24 18.5687 24 12C24 5.43133 18.5597 0 11.9826 0C5.41711 0 0 5.43133 0 12C0 18.5687 5.42871 24 11.9942 24ZM11.9942 18.1044C11.3678 18.1044 10.9038 17.6634 10.9038 17.0368V11.3965L11.0198 8.91296L9.94103 10.2592L8.60706 11.6634C8.42146 11.8607 8.15466 11.9768 7.86467 11.9768C7.28468 11.9768 6.85549 11.559 6.85549 10.9903C6.85549 10.7002 6.94828 10.4681 7.14548 10.2592L11.1358 6.2205C11.4026 5.93037 11.6694 5.80271 11.9942 5.80271C12.3422 5.80271 12.609 5.94197 12.8758 6.2205L16.8429 10.2592C17.0517 10.4681 17.1445 10.7002 17.1445 10.9903C17.1445 11.559 16.7153 11.9768 16.1353 11.9768C15.8453 11.9768 15.5785 11.8723 15.3929 11.6634L14.0706 10.2708L12.9802 8.90135L13.0962 11.3965V17.0368C13.0962 17.6634 12.6322 18.1044 11.9942 18.1044Z" fill="black"/>
</svg>

<svg width="24" height="24" fill="none" xmlns="http://www.w3.org/2000/svg"><path d="M11.994 24C18.571 24 24 18.569 24 12S18.56 0 11.983 0C5.417 0 0 5.431 0 12s5.429 12 11.994 12zm0-5.896c-.626 0-1.09-.44-1.09-1.067v-5.64l.116-2.484-1.079 1.346-1.334 1.404a1.015 1.015 0 0 1-.742.314c-.58 0-1.01-.418-1.01-.987 0-.29.093-.522.29-.73l3.99-4.04c.268-.29.534-.417.86-.417.347 0 .614.139.88.418l3.968 4.038a.973.973 0 0 1 .302.731c0 .569-.43.987-1.01.987a.972.972 0 0 1-.742-.314l-1.322-1.392-1.09-1.37.115 2.495v5.64c0 .627-.464 1.068-1.102 1.068z" fill="#000"/></svg>
